X: 3
T:Hanter-Dro klamm #1
M:3/2
L:1/4
S:Bleizi Ruz
R:Hanter Dro klamm
O:Bretagne
K:Em
E F/2G/2 E D G2 |G F/2G/2BAF/2A/2G/2F/2|E F/2G/2 E D G2 |1 G F/2G/2BAE2
 :|2 G F/2G/2BAB2 ||!
L:1/8 |:B2 AB GBdA B2 G2 | 
M:2/2 cBAB G2 AF|G2z2  z4   |M:3/2 L:1/8 B2 AB GBdAB2 G2 | cBAB G2 F2 E4
   :|
